public/logo.svg

<svg width="137" height="20" viewBox="0 0 137 20" fill="none" xmlns="http://www.w3.org/2000/svg">
<path d="M12.9511 0C12.7773 0 12.6364 0.146714 12.6364 0.327695C12.6364 0.508676 12.7773 0.71428 12.9511 0.71428C13.6601 0.764553 14.2102 1.37181 14.2102 2.10407V2.88657C14.2102 3.06755 14.3511 3.21426 14.525 3.21426H17.0431C17.217 3.21426 17.3579 3.06755 17.3579 2.88657V2.10407C17.3579 1.37181 17.908 0.764553 18.617 0.71428C18.7908 0.71428 18.9317 0.508676 18.9317 0.327695C18.9317 0.146714 18.7908 0 18.617 0H12.9511Z" fill="#790204"/>
<path d="M35.7064 0.00475401H32.2206C32.1274 0.00475401 32.0808 0.0820646 32.0808 0.236686C32.0808 0.391307 32.1274 0.493031 32.2206 0.541859C32.3139 0.590687 32.3749 0.631377 32.4035 0.663929C32.7478 1.05455 32.92 1.5469 32.92 2.14097V17.8635C32.92 18.1402 32.8698 18.4169 32.7693 18.6936C32.6689 18.9621 32.5721 19.1493 32.4789 19.2551C32.3928 19.3527 32.3211 19.4179 32.2637 19.4504C32.2063 19.4748 32.1597 19.5033 32.1238 19.5359C32.0951 19.5603 32.0808 19.6457 32.0808 19.7922C32.0808 19.9305 32.1274 19.9997 32.2206 19.9997H35.7064C35.7997 19.9997 35.8463 19.9224 35.8463 19.7678C35.8463 19.6132 35.7997 19.5114 35.7064 19.4626C35.6132 19.4138 35.5522 19.3731 35.5235 19.3405C35.1793 18.9499 35.0071 18.4576 35.0071 17.8635V2.14097C35.0071 1.86428 35.0573 1.59166 35.1578 1.3231C35.2582 1.04641 35.3514 0.85924 35.4375 0.761584C35.5307 0.655791 35.606 0.590687 35.6634 0.566273C35.7208 0.533721 35.7638 0.505238 35.7925 0.480825C35.8284 0.448273 35.8463 0.362824 35.8463 0.224479C35.8463 0.0779956 35.7997 0.00475401 35.7064 0.00475401Z" fill="#790204"/>
<path d="M41.4175 0.00475401C41.482 0.00475401 41.543 0.0373058 41.6004 0.102409L53.6285 14.5798H53.7038V2.14097C53.7038 1.55503 53.5281 1.06269 53.1767 0.663929C53.148 0.631377 53.087 0.590687 52.9938 0.541859C52.9005 0.493031 52.8539 0.391307 52.8539 0.236686C52.8539 0.0820646 52.9005 0.00475401 52.9938 0.00475401H56.5119C56.6051 0.00475401 56.6517 0.0779956 56.6517 0.224479C56.6517 0.362824 56.6338 0.448273 56.5979 0.480825C56.5692 0.505238 56.5262 0.533721 56.4688 0.566273C56.4114 0.590687 56.3361 0.655791 56.2429 0.761584C56.1496 0.867377 56.0492 1.05455 55.9416 1.3231C55.8412 1.59166 55.791 1.86428 55.791 2.14097V19.3527C55.791 19.6539 55.7552 19.837 55.6834 19.9021C55.6189 19.9672 55.5113 19.9997 55.3607 19.9997C55.2101 19.9997 55.0881 19.9509 54.9949 19.8532L41.4713 3.56918V17.8635C41.4713 18.4901 41.6291 18.9825 41.9447 19.3405C41.9734 19.3731 42.0343 19.4138 42.1276 19.4626C42.2208 19.5114 42.2674 19.6132 42.2674 19.7678C42.2674 19.9224 42.2208 19.9997 42.1276 19.9997H38.6633C38.57 19.9997 38.5234 19.9305 38.5234 19.7922C38.5234 19.6457 38.5378 19.5603 38.5665 19.5359C38.6023 19.5033 38.6489 19.4748 38.7063 19.4504C38.7637 19.4179 38.8103 19.3812 38.8462 19.3405C39.2048 18.9336 39.3841 18.4413 39.3841 17.8635V2.14097C39.3841 1.53876 39.2156 1.04641 38.8785 0.663929C38.8498 0.631377 38.7888 0.590687 38.6956 0.541859C38.6023 0.493031 38.5557 0.391307 38.5557 0.236686C38.5557 0.0820646 38.6023 0.00475401 38.6956 0.00475401H41.4175Z" fill="#790204"/>
<path d="M70.2492 7.45099C69.9049 7.84161 69.471 8.03692 68.9474 8.03692H62.1587V1.98228H69.3024C70.1129 1.98228 70.6078 2.06366 70.7871 2.22642C70.9736 2.38104 71.0884 2.49904 71.1314 2.58042C71.1816 2.65366 71.2246 2.71469 71.2605 2.76352C71.2964 2.80421 71.3287 2.82456 71.3573 2.82456C71.3932 2.82456 71.4613 2.80421 71.5618 2.76352C71.6693 2.72283 71.7231 2.68621 71.7231 2.65366C71.7231 2.62111 71.6729 2.46242 71.5725 2.17759L71.2282 1.18883C71.0991 0.814481 71.0095 0.525583 70.9593 0.322134C70.9091 0.110547 70.8481 0.00475401 70.7764 0.00475401H59.3722C59.279 0.00475401 59.2324 0.0820646 59.2324 0.236686C59.2324 0.391307 59.279 0.493031 59.3722 0.541859C59.4655 0.590687 59.5264 0.631377 59.5551 0.663929C59.8994 1.05455 60.0715 1.5469 60.0715 2.14097V17.8635C60.0715 18.1402 60.0213 18.4169 59.9209 18.6936C59.8205 18.9621 59.7237 19.1493 59.6304 19.2551C59.5444 19.3527 59.4726 19.4179 59.4153 19.4504C59.3579 19.4748 59.3113 19.5033 59.2754 19.5359C59.2467 19.5603 59.2324 19.6457 59.2324 19.7922C59.2324 19.9305 59.279 19.9997 59.3722 19.9997H70.7764C70.8553 19.9672 70.9162 19.8573 70.9593 19.6701C71.0095 19.4748 71.0991 19.19 71.2282 18.8156L71.5725 17.8269C71.6729 17.5421 71.7231 17.3834 71.7231 17.3508C71.7231 17.3183 71.6693 17.2816 71.5618 17.2409C71.4613 17.2003 71.3896 17.1799 71.3466 17.1799C71.3107 17.1799 71.2533 17.2409 71.1744 17.363C71.1027 17.4851 70.9736 17.6275 70.7871 17.7903C70.6078 17.9449 70.1129 18.0222 69.3024 18.0222H62.1587V10.0144H68.9474C69.1913 10.0144 69.4315 10.0673 69.6682 10.1731C69.9121 10.2789 70.0771 10.3847 70.1631 10.4905C70.2564 10.5882 70.3138 10.6695 70.3353 10.7347C70.364 10.7998 70.3891 10.8527 70.4106 10.8933C70.4393 10.9259 70.5146 10.9422 70.6365 10.9422C70.7656 10.9422 70.8302 10.8893 70.8302 10.7835V7.24347C70.8302 7.13767 70.762 7.08478 70.6258 7.08478C70.4895 7.08478 70.3998 7.13767 70.3568 7.24347C70.3138 7.34926 70.2779 7.41843 70.2492 7.45099Z" fill="#790204"/>
<path fill-rule="evenodd" clip-rule="evenodd" d="M89.6114 18.1321L96.6906 0.151237C96.7264 0.0535818 96.9022 0.00475401 97.2178 0.00475401C97.5333 0.00475401 97.7127 0.0535818 97.7557 0.151237L105.05 18.1321C105.33 18.8726 105.606 19.3161 105.878 19.4626C105.972 19.5114 106.018 19.6132 106.018 19.7678C106.018 19.9224 105.972 19.9997 105.878 19.9997H101.984C101.891 19.9997 101.844 19.9305 101.844 19.7922C101.844 19.6457 101.858 19.5603 101.887 19.5359C101.923 19.5033 101.969 19.4748 102.027 19.4504C102.084 19.4179 102.131 19.3812 102.167 19.3405C102.439 19.0313 102.576 18.7465 102.576 18.4861C102.576 18.2175 102.55 17.9978 102.5 17.8269L100.94 13.6399H93.1833L91.6555 17.8269C91.6053 17.9978 91.5802 18.128 91.5802 18.2175V18.3762C91.5802 18.7099 91.7165 19.0313 91.9891 19.3405C92.0178 19.3731 92.0787 19.4138 92.172 19.4626C92.2652 19.5114 92.3118 19.6132 92.3118 19.7678C92.3118 19.9224 92.2652 19.9997 92.172 19.9997H88.783C88.6898 19.9997 88.6431 19.9305 88.6431 19.7922C88.6431 19.6457 88.6575 19.5603 88.6862 19.5359C88.722 19.5033 88.7686 19.4707 88.826 19.4382C89.0627 19.3243 89.3245 18.8889 89.6114 18.1321ZM93.9471 11.699C93.9328 11.7234 93.9292 11.756 93.9364 11.7967C93.9436 11.8292 93.9579 11.8455 93.9794 11.8455H100.123C100.144 11.8455 100.158 11.8292 100.166 11.7967C100.173 11.756 100.169 11.7234 100.155 11.699L97.0456 4.03304H96.9703L93.9471 11.699Z" fill="#790204"/>
<path fill-rule="evenodd" clip-rule="evenodd" d="M123.164 19.9997H128.576C129.788 19.9997 130.925 19.7149 131.987 19.1452C133.055 18.5674 133.948 17.8106 134.665 16.8747C135.39 15.9389 135.96 14.8687 136.376 13.6643C136.792 12.4518 137 11.2107 137 9.9412C137 7.9474 136.627 6.25471 135.881 4.86311C135.135 3.46339 134.196 2.38104 133.062 1.61607C131.463 0.541859 129.788 0.00475401 128.038 0.00475401H123.164C123.071 0.00475401 123.025 0.0820646 123.025 0.236686C123.025 0.391307 123.071 0.493031 123.164 0.541859C123.258 0.590687 123.319 0.631377 123.347 0.663929C123.692 1.05455 123.864 1.5469 123.864 2.14097V17.8635C123.864 18.1402 123.814 18.4169 123.713 18.6936C123.613 18.9621 123.516 19.1493 123.423 19.2551C123.337 19.3527 123.265 19.4179 123.208 19.4504C123.15 19.4748 123.104 19.5033 123.068 19.5359C123.039 19.5603 123.025 19.6457 123.025 19.7922C123.025 19.9305 123.071 19.9997 123.164 19.9997ZM126.607 18.0832C126.17 18.0832 125.951 17.9327 125.951 17.6316V2.202C125.951 2.12876 125.972 2.06773 126.016 2.0189C126.066 1.97007 126.12 1.94566 126.177 1.94566H127.834C129.032 1.94566 130.089 2.15724 131.008 2.58042C131.926 2.99545 132.661 3.57325 133.213 4.3138C134.318 5.79491 134.87 7.67071 134.87 9.9412C134.87 11.8048 134.54 13.3917 133.88 14.7019C132.747 16.948 130.724 18.0751 127.812 18.0832H126.607Z" fill="#790204"/>
<path d="M110.686 2.18986C110.794 2.0678 110.923 2.00676 111.073 2.00676H113.064C113.989 2.00676 114.817 2.24683 115.549 2.72697C116.28 3.19897 116.646 3.95173 116.646 4.98525C116.646 6.01877 116.266 6.84071 115.506 7.45105C114.516 8.25671 113.139 8.65954 111.375 8.65954C111.303 8.65954 111.267 8.70023 111.267 8.78161V9.52623C111.267 9.77851 111.274 9.97789 111.288 10.1244C111.288 10.1325 111.375 10.1529 111.547 10.1854C112.759 10.3807 114.204 11.7642 115.882 14.3358C116.786 15.7192 117.5 17.1759 118.023 18.7058C118.052 18.7872 118.066 18.9012 118.066 19.0476C118.074 19.186 118.056 19.2796 118.013 19.3284C117.977 19.3772 117.93 19.4179 117.873 19.4505C117.815 19.4749 117.769 19.5034 117.733 19.5359C117.704 19.5603 117.69 19.6458 117.69 19.7923C117.69 19.9306 117.736 19.9998 117.83 19.9998H121.316C121.409 19.9998 121.455 19.9062 121.455 19.719C121.455 19.5319 121.348 19.4057 121.133 19.3406C120.917 19.2755 120.648 18.9093 120.326 18.242L119.444 16.4598C119.157 15.8983 118.712 15.174 118.109 14.2869C117.507 13.3999 116.987 12.7082 116.549 12.2118C116.112 11.7072 115.671 11.2555 115.226 10.8568C114.781 10.458 114.487 10.2098 114.344 10.1122L114 9.89244C114 9.86803 114.175 9.83955 114.527 9.80699C114.878 9.7663 115.391 9.57506 116.065 9.23327C117.901 8.30554 118.82 6.84478 118.82 4.85098C118.82 3.15828 118.285 1.93759 117.216 1.1889C116.155 0.432066 114.835 0.045513 113.257 0.0292371H107.738C107.645 0.0292371 107.598 0.102479 107.598 0.248962C107.598 0.395445 107.645 0.493101 107.738 0.541928C107.831 0.590756 107.892 0.631446 107.921 0.663998C108.265 1.05462 108.437 1.54697 108.437 2.14104V17.8636C108.437 18.1403 108.387 18.417 108.287 18.6936C108.186 18.9622 108.09 19.1494 107.996 19.2552C107.91 19.3528 107.839 19.4179 107.781 19.4505C107.724 19.4749 107.677 19.5034 107.641 19.5359C107.613 19.5603 107.598 19.6458 107.598 19.7923C107.598 19.9306 107.645 19.9998 107.738 19.9998H111.224C111.317 19.9998 111.364 19.9225 111.364 19.7679C111.364 19.6132 111.317 19.5115 111.224 19.4627C111.131 19.4139 111.07 19.3732 111.041 19.3406C110.697 18.95 110.525 18.4576 110.525 17.8636V2.61711C110.525 2.44621 110.578 2.3038 110.686 2.18986Z" fill="#790204"/>
<path d="M8.97517 15.9717V11.6177C8.97517 7.27839 12.0755 3.76066 15.9 3.76066C19.7245 3.76066 22.8249 7.27839 22.8249 11.6177V15.8914L27.4991 2.17787C27.6712 1.61635 27.56 1.1118 27.1656 0.664213C27.1369 0.631661 27.0759 0.590972 26.9827 0.542144C26.8894 0.493316 26.8428 0.391592 26.8428 0.236971C26.8428 0.0823493 26.8894 0.00503875 26.9827 0.00503875H30.3716C30.4649 0.00503875 30.5115 0.0782804 30.5115 0.224764C30.5115 0.363109 30.4936 0.448557 30.4577 0.481109C30.429 0.505523 30.386 0.534006 30.3286 0.566558C30.0919 0.688627 29.8301 1.12401 29.5432 1.8727C28.7686 3.85022 27.6963 6.83685 26.3264 10.8326C24.9564 14.8202 23.8734 17.8272 23.0773 19.8535C23.0537 19.9178 22.9696 19.9609 22.8249 19.9829V19.9997H22.5952C22.5805 19.9999 22.5655 20 22.5501 20C22.5347 20 22.5197 19.9999 22.5049 19.9997H21.9363C21.384 19.9997 20.9363 19.5383 20.9363 18.9692V11.6177C20.9363 8.65909 18.5077 5.9035 15.9 5.9035C14.6581 5.9035 13.4567 6.52857 12.539 7.50296C13.0049 7.34738 13.4979 7.26389 14.0082 7.26389C16.8765 7.26389 19.2018 9.90219 19.2018 13.1567V19.4553C19.2018 19.756 18.9653 19.9998 18.6734 19.9998C18.3816 19.9998 18.145 19.756 18.144 19.4553L18.1433 19.2884C18.1425 19.0709 18.1417 18.8546 18.1417 18.5945V13.4486C18.1417 10.1941 15.8164 7.55581 12.948 7.55581C12.7859 7.55581 12.6254 7.56424 12.4671 7.58074C11.4984 8.64606 10.8638 10.1054 10.8638 11.6177V18.9692C10.8638 19.5383 10.4161 19.9997 9.86378 19.9997H8.97517V19.994C8.92271 19.998 8.86451 20 8.80056 20C8.48498 20 8.30567 19.9512 8.26263 19.8535L6.63808 16.0694L3.81932 9.16024L0.968277 1.8727C0.688553 1.13215 0.412414 0.688627 0.139862 0.542144C0.0466208 0.493316 0 0.391592 0 0.236971C0 0.0823493 0.0466208 0.00503875 0.139862 0.00503875H4.03449C4.12773 0.00503875 4.17435 0.0782804 4.17435 0.224764C4.17435 0.363109 4.15642 0.448557 4.12056 0.481109C4.09187 0.505523 4.04883 0.534006 3.99145 0.566558C3.93407 0.590972 3.88745 0.623524 3.85159 0.664213C3.45711 1.1118 3.34594 1.61635 3.51807 2.17787L8.9727 15.9717H8.97517Z" fill="#790204"/>
<path d="M77.7931 19.6101C77.7931 19.7911 77.934 19.9378 78.1078 19.9378H83.7736C83.9475 19.9378 84.0884 19.7911 84.0884 19.6101C84.0884 19.4291 83.9475 19.2235 83.7736 19.2235C83.0647 19.1733 82.5146 18.566 82.5146 17.8338V17.0513C82.5146 16.8703 82.3736 16.7236 82.1998 16.7236H79.6817C79.5078 16.7236 79.3669 16.8703 79.3669 17.0513V17.8338C79.3669 18.566 78.8167 19.1733 78.1078 19.2235C77.934 19.2235 77.7931 19.4291 77.7931 19.6101Z" fill="#790204"/>
<path d="M73.2121 0H76.7087C76.8022 0 76.849 0.0732414 76.849 0.219724C76.849 0.358069 76.831 0.443517 76.795 0.476069C76.7662 0.500483 76.7231 0.528966 76.6655 0.561518C76.608 0.585931 76.5324 0.651035 76.4389 0.756828C76.3525 0.854483 76.259 1.04166 76.1583 1.31835C76.0576 1.5869 76.0072 1.85952 76.0072 2.13621V8.31981C76.0072 11.4757 78.1595 14.0341 80.9409 14.0341C83.7224 14.0341 85.8747 11.4757 85.8747 8.31981V2.13621C85.8747 1.54214 85.702 1.04979 85.3567 0.659173C85.3279 0.626621 85.2667 0.585931 85.1732 0.537104C85.0797 0.488276 85.0329 0.386552 85.0329 0.231931C85.0329 0.0773104 85.0797 0 85.1732 0H88.6698C88.7634 0 88.8101 0.0732414 88.8101 0.219724C88.8101 0.358069 88.7921 0.443517 88.7562 0.476069C88.7274 0.500483 88.6842 0.528966 88.6267 0.561518C88.5691 0.585931 88.4936 0.651035 88.4 0.756828C88.3137 0.854483 88.2202 1.04166 88.1194 1.31835C88.0187 1.5869 87.9684 1.85952 87.9684 2.13621V8.31981C87.9684 12.6592 84.7655 16.1769 80.9409 16.1769C77.1164 16.1769 73.9136 12.6592 73.9136 8.31981V2.13621C73.9136 1.54214 73.7409 1.04979 73.3955 0.659173C73.3668 0.626621 73.3056 0.585931 73.2121 0.537104C73.1185 0.488276 73.0718 0.386552 73.0718 0.231931C73.0718 0.0773104 73.1185 0 73.2121 0Z" fill="#790204"/>
</svg>

<svg xmlns="http://www.w3.org/2000/svg" fill="none" viewBox="0 0 137 20"><path fill="#FFF" d="M12.9511 0c-.1738 0-.3147.14671-.3147.3277 0 .18098.1409.38658.3147.38658.709.05027 1.2591.65753 1.2591 1.38979v.7825c0 .18098.1409.32769.3148.32769h2.5181c.1739 0 .3148-.14671.3148-.32769v-.7825c0-.73226.5501-1.33952 1.2591-1.38979.1738 0 .3147-.2056.3147-.38659C18.9317.14672 18.7908 0 18.617 0h-5.6659ZM35.7064.00475h-3.4858c-.0932 0-.1398.07731-.1398.23194 0 .15462.0466.25634.1398.30517.0933.04883.1543.08952.1829.12207.3443.39062.5165.88297.5165 1.47704V17.8635c0 .2767-.0502.5534-.1507.8301-.1004.2685-.1972.4557-.2904.5615-.0861.0976-.1578.1628-.2152.1953-.0574.0244-.104.0529-.1399.0855-.0287.0244-.043.1098-.043.2563 0 .1383.0466.2075.1398.2075h3.4858c.0933 0 .1399-.0773.1399-.2319 0-.1546-.0466-.2564-.1399-.3052-.0932-.0488-.1542-.0895-.1829-.1221-.3442-.3906-.5164-.8829-.5164-1.477V2.14097c0-.27669.0502-.54931.1507-.81787.1004-.27669.1936-.46386.2797-.56152.0932-.10579.1685-.1709.2259-.1953.0574-.03256.1004-.06104.1291-.08546.0359-.03255.0538-.118.0538-.25634 0-.14648-.0466-.21973-.1399-.21973ZM41.4175.00475c.0645 0 .1255.03256.1829.09766L53.6285 14.5798h.0753V2.14097c0-.58594-.1757-1.07828-.5271-1.47704-.0287-.03255-.0897-.07324-.1829-.12207-.0933-.04883-.1399-.15055-.1399-.30517 0-.15463.0466-.23194.1399-.23194h3.5181c.0932 0 .1398.07325.1398.21973 0 .13834-.0179.2238-.0538.25634-.0287.02442-.0717.0529-.1291.08545-.0574.02442-.1327.08952-.2259.19531-.0933.1058-.1937.29297-.3013.56152-.1004.26856-.1506.54118-.1506.81787V19.3527c0 .3012-.0358.4843-.1076.5494-.0645.0651-.1721.0976-.3227.0976-.1506 0-.2726-.0488-.3658-.1465L41.4713 3.56918V17.8635c0 .6266.1578 1.119.4734 1.477.0287.0326.0896.0733.1829.1221.0932.0488.1398.1506.1398.3052 0 .1546-.0466.2319-.1398.2319h-3.4643c-.0933 0-.1399-.0692-.1399-.2075 0-.1465.0144-.2319.0431-.2563.0358-.0326.0824-.0611.1398-.0855.0574-.0325.104-.0692.1399-.1099.3586-.4069.5379-.8992.5379-1.477V2.14097c0-.60221-.1685-1.09456-.5056-1.47704-.0287-.03255-.0897-.07324-.1829-.12207-.0933-.04883-.1399-.15055-.1399-.30517 0-.15463.0466-.23194.1399-.23194h2.7219ZM70.2492 7.45099c-.3443.39062-.7782.58593-1.3018.58593h-6.7887V1.98228h7.1437c.8105 0 1.3054.08138 1.4847.24414.1865.15462.3013.27262.3443.354.0502.07324.0932.13427.1291.1831.0359.04069.0682.06104.0968.06104.0359 0 .104-.02035.2045-.06104.1075-.04069.1613-.07731.1613-.10986 0-.03255-.0502-.19124-.1506-.47607l-.3443-.98876c-.1291-.37435-.2187-.66325-.2689-.8667-.0502-.21158-.1112-.31738-.1829-.31738H59.3722c-.0932 0-.1398.07731-.1398.23194 0 .15462.0466.25634.1398.30517.0933.04883.1542.08952.1829.12207.3443.39062.5164.88297.5164 1.47704V17.8635c0 .2767-.0502.5534-.1506.8301-.1004.2685-.1972.4557-.2905.5615-.086.0976-.1578.1628-.2151.1953-.0574.0244-.104.0529-.1399.0855-.0287.0244-.043.1098-.043.2563 0 .1383.0466.2075.1398.2075h11.4042c.0789-.0325.1398-.1424.1829-.3296.0502-.1953.1398-.4801.2689-.8545l.3443-.9887c.1004-.2848.1506-.4435.1506-.4761 0-.0325-.0538-.0692-.1613-.1099-.1005-.0406-.1722-.061-.2152-.061-.0359 0-.0933.061-.1722.1831-.0717.1221-.2008.2645-.3873.4273-.1793.1546-.6742.2319-1.4847.2319h-7.1437v-8.0078h6.7887c.2439 0 .4841.0529.7208.1587.2439.1058.4089.2116.4949.3174.0933.0977.1507.179.1722.2442.0287.0651.0538.118.0753.1586.0287.0326.104.0489.2259.0489.1291 0 .1937-.0529.1937-.1587V7.24347c0-.1058-.0682-.15869-.2044-.15869-.1363 0-.226.05289-.269.15869-.043.10579-.0789.17496-.1076.20752Z"/><path fill="#FFF" fill-rule="evenodd" d="M89.6114 18.1321 96.6906.15124c.0358-.09766.2116-.14649.5272-.14649.3155 0 .4949.04883.5379.14649L105.05 18.1321c.28.7405.556 1.184.828 1.3305.094.0488.14.1506.14.3052 0 .1546-.046.2319-.14.2319h-3.894c-.093 0-.14-.0692-.14-.2075 0-.1465.014-.2319.043-.2563.036-.0326.082-.0611.14-.0855.057-.0325.104-.0692.14-.1099.272-.3092.409-.594.409-.8544 0-.2686-.026-.4883-.076-.6592l-1.56-4.187h-7.7567l-1.5278 4.187c-.0502.1709-.0753.3011-.0753.3906v.1587c0 .3337.1363.6551.4089.9643.0287.0326.0896.0733.1829.1221.0932.0488.1398.1506.1398.3052 0 .1546-.0466.2319-.1398.2319h-3.389c-.0932 0-.1399-.0692-.1399-.2075 0-.1465.0144-.2319.0431-.2563.0358-.0326.0824-.0652.1398-.0977.2367-.1139.4985-.5493.7854-1.3061Zm4.3357-6.4331c-.0143.0244-.0179.057-.0107.0977.0072.0325.0215.0488.043.0488h6.1436c.021 0 .035-.0163.043-.0488.007-.0407.003-.0733-.011-.0977l-3.1094-7.66596h-.0753L93.9471 11.699ZM123.164 19.9997h5.412c1.212 0 2.349-.2848 3.411-.8545 1.068-.5778 1.961-1.3346 2.678-2.2705.725-.9358 1.295-2.006 1.711-3.2104.416-1.2125.624-2.4536.624-3.7231 0-1.9938-.373-3.68649-1.119-5.07809-.746-1.39972-1.685-2.48207-2.819-3.24704-1.599-1.07421-3.274-1.61132-5.024-1.61132h-4.874c-.093 0-.139.07731-.139.23194 0 .15462.046.25634.139.30517.094.04883.155.08952.183.12207.345.39062.517.88297.517 1.47704V17.8635c0 .2767-.05.5534-.151.8301-.1.2685-.197.4557-.29.5615-.086.0976-.158.1628-.215.1953-.058.0244-.104.0529-.14.0855-.029.0244-.043.1098-.043.2563 0 .1383.046.2075.139.2075Zm3.443-1.9165c-.437 0-.656-.1505-.656-.4516V2.202c0-.07324.021-.13427.065-.1831.05-.04883.104-.07324.161-.07324h1.657c1.198 0 2.255.21158 3.174.63476.918.41503 1.653.99283 2.205 1.73338 1.105 1.48111 1.657 3.35691 1.657 5.6274 0 1.8636-.33 3.4505-.99 4.7607-1.133 2.2461-3.156 3.3732-6.068 3.3813h-1.205Z" clip-rule="evenodd"/><path fill="#FFF" d="M110.686 2.18986c.108-.12206.237-.1831.387-.1831h1.991c.925 0 1.753.24007 2.485.72021.731.472 1.097 1.22476 1.097 2.25828s-.38 1.85546-1.14 2.4658c-.99.80566-2.367 1.20849-4.131 1.20849-.072 0-.108.04069-.108.12207v.74462c0 .25228.007.45166.021.59817 0 .0081.087.0285.259.061 1.212.1953 2.657 1.5788 4.335 4.1504.904 1.3834 1.618 2.8401 2.141 4.37.029.0814.043.1954.043.3418.008.1384-.01.232-.053.2808-.036.0488-.083.0895-.14.1221-.058.0244-.104.0529-.14.0854-.029.0244-.043.1099-.043.2564 0 .1383.046.2075.14.2075h3.486c.093 0 .139-.0936.139-.2808 0-.1871-.107-.3133-.322-.3784-.216-.0651-.485-.4313-.807-1.0986l-.882-1.7822c-.287-.5615-.732-1.2858-1.335-2.1729-.602-.887-1.122-1.5787-1.56-2.0751-.437-.5046-.878-.9563-1.323-1.355-.445-.3988-.739-.647-.882-.7446L114 9.89244c0-.02441.175-.05289.527-.08545.351-.04069.864-.23193 1.538-.57372 1.836-.92773 2.755-2.38849 2.755-4.38229 0-1.6927-.535-2.91339-1.604-3.66208-1.061-.75683-2.381-1.14339-3.959-1.15966h-5.519c-.093 0-.14.07324-.14.21972 0 .14649.047.24414.14.29297.093.04883.154.08952.183.12207.344.39062.516.88297.516 1.47704V17.8636c0 .2767-.05.5534-.15.83-.101.2686-.197.4558-.291.5616-.086.0976-.157.1627-.215.1953-.057.0244-.104.0529-.14.0854-.028.0244-.043.1099-.043.2564 0 .1383.047.2075.14.2075h3.486c.093 0 .14-.0773.14-.2319 0-.1547-.047-.2564-.14-.3052-.093-.0488-.154-.0895-.183-.1221-.344-.3906-.516-.883-.516-1.477V2.61711c0-.1709.053-.31331.161-.42725ZM8.97517 15.9717v-4.354c0-4.33931 3.10033-7.85704 6.92483-7.85704s6.9249 3.51773 6.9249 7.85704v4.2737l4.6742-13.71353c.1721-.56152.0609-1.06607-.3335-1.51366-.0287-.03255-.0897-.07324-.1829-.12207-.0933-.04882-.1399-.15055-.1399-.30517s.0466-.23193.1399-.23193h3.3889c.0933 0 .1399.07324.1399.21972 0 .13835-.0179.2238-.0538.25635-.0287.02441-.0717.0529-.1291.08545-.2367.12207-.4985.55745-.7854 1.30614-.7746 1.97752-1.8469 4.96415-3.2168 8.9599-1.37 3.9876-2.453 6.9946-3.2491 9.0209-.0236.0643-.1077.1074-.2524.1294v.0168h-.2297a3.3127 3.3127 0 0 1-.0903 0h-.5686c-.5523 0-1-.4614-1-1.0305v-7.3515c0-2.95861-2.4286-5.7142-5.0363-5.7142-1.2419 0-2.4433.62507-3.361 1.59946.4659-.15558.9589-.23907 1.4692-.23907 2.8683 0 5.1936 2.6383 5.1936 5.89281v6.2986c0 .3007-.2365.5445-.5284.5445-.2918 0-.5284-.2438-.5294-.5445l-.0007-.1669c-.0008-.2175-.0016-.4338-.0016-.6939v-5.1459c0-3.2545-2.3253-5.89279-5.1937-5.89279-.1621 0-.3226.00843-.4809.02493-.9687 1.06532-1.6033 2.52466-1.6033 4.03696v7.3515c0 .5691-.4477 1.0305-1.00002 1.0305h-.88861v-.0057c-.05246.004-.11066.006-.17461.006-.31558 0-.49489-.0488-.53793-.1465l-1.62455-3.7841-2.81876-6.90916L.96828 1.8727C.68855 1.13215.4124.68863.13986.54214.04662.49332 0 .3916 0 .23697S.04662.00504.13986.00504H4.0345c.09324 0 .13986.07324.13986.21972 0 .13835-.01793.2238-.05379.25635-.02869.02441-.07173.0529-.12911.08545-.05738.02441-.104.05696-.13986.09765-.39448.44759-.50565.95214-.33352 1.51366L8.9727 15.9717h.00247ZM77.7931 19.6101c0 .181.1409.3277.3147.3277h5.6658c.1739 0 .3148-.1467.3148-.3277s-.1409-.3866-.3148-.3866c-.7089-.0502-1.259-.6575-1.259-1.3897v-.7825c0-.181-.141-.3277-.3148-.3277h-2.5181c-.1739 0-.3148.1467-.3148.3277v.7825c0 .7322-.5502 1.3395-1.2591 1.3897-.1738 0-.3147.2056-.3147.3866ZM73.2121 0h3.4966c.0935 0 .1403.07324.1403.21972 0 .13835-.018.2238-.054.25635-.0288.02441-.0719.0529-.1295.08545-.0575.02441-.1331.08952-.2266.1953-.0864.09766-.1799.28484-.2806.56153-.1007.26855-.1511.54117-.1511.81786v6.1836c0 3.15589 2.1523 5.71429 4.9337 5.71429 2.7815 0 4.9338-2.5584 4.9338-5.71429v-6.1836c0-.59407-.1727-1.08642-.518-1.47704-.0288-.03255-.09-.07324-.1835-.12207-.0935-.04882-.1403-.15055-.1403-.30517S85.0797 0 85.1732 0h3.4966c.0936 0 .1403.07324.1403.21972 0 .13835-.018.2238-.0539.25635-.0288.02441-.072.0529-.1295.08545-.0576.02441-.1331.08952-.2267.1953-.0863.09766-.1798.28484-.2806.56153-.1007.26855-.151.54117-.151.81786v6.1836c0 4.33939-3.2029 7.85709-7.0275 7.85709-3.8245 0-7.0273-3.5177-7.0273-7.85709v-6.1836c0-.59407-.1727-1.08642-.5181-1.47704-.0287-.03255-.0899-.07324-.1834-.12207-.0936-.04882-.1403-.15055-.1403-.30517S73.1185 0 73.2121 0Z"/></svg>
